X: 1
T: Headlight Reel
S: from Ashley MacIsaac "Close to the Floor"
Z: arr. T. Traub 4-19-2000
M: 4/4
L: 1/8
R: reel
K: D
|: FE |\
"D"DA,A,D FDDF | "D"AddB A2 FD |\
"G"GBEG "D"FADF | "Em"EFGE "A7"DCB,A, |\
"D"DA,A,D FDDF |
"D"AddB A2 FD |\
"G"GBEG "D"FADF | "A7"EDCE "D"D2 :: fg |\
"D"afdf "A7"gece | "D"fdAd "A7"e2 dc |
"D"dDEF "Bm"GABc | "Em"defg "A7"e2 fg |\
"D"afge fdec | "Bm"dABG AFGE |\
"G"FDED "D"A,DFD | "A7"EDCE "D"D2 :|
